X:612
%%etbk:tnset id:356,pos:4,rep:3x,ant:
%%etbk:wsite http://thesession.org/tunes/12800
%%etbk:pldat 2016-09-04T14:52,2014-12-14T15:45,2014-12-04T19:17,2014-12-01T19:05,2014-11-24T14:39,2014-11-10T18:23,2014-11-09T14:55,2014-10-19T15:19,2014-10-12T15:13,2014-10-11T15:24,2014-10-10T16:36,2014-10-09T10:59,2014-10-05T15:28,2014-10-03T15:55,2014-09-30T11:11,2014-09-25T19:03,2014-09-24T16:31
T: Tom Rae
Z: Piano Box Version by Martin Fleischmann
H: Created 2014-09-22 /  Last Modified 2014-09-27
R: reel
M: 4/4
L: 1/8
K: Ador
!1!A,2 !5!AG !3!E!2!D!3!E!1!C | !2!B,!3!D!5!G!4!E !3!D!2!B,!1!G,!2!B, |1 !1!A,2 !5!AG EDEC | !2!B,!5!G!3!D!2!B, !1!A,2 A,2 :|2 A,2 A,B, C2EC | !2!B,!5!GDB, A,2 A,2 | 
K: Amix
d|: !2!(3cde Ad !2!c!4!e!5!ac | !1!B!3!d!5!gd !2!B!1!GB!3!d |1 !2!(3cde Ad ceac | BgdB A2 Ad:|2 cABG !5!AFGD | !2!E!5!G!1!D!2!B, !1!A,2 A,2:|


